X:1
T:Lezginka - Kafkas Dansı - Piano Tutorial by VN
T:Ləzginka (Qafqaz xalq rəqsi) 
T:Notlara yığdı: Müşfiq Abdullayev 
C:Piano by VN
%%score { 1 | 2 }
L:1/8
Q:1/4=98
M:3/4
K:C
V:1 treble 
V:2 bass 
V:1
|: z!f! A/c/ A/c<e ff/ | ee/ cc/A [Aca]/[Aca]/[Aca]/[Aca]/ | [Aca]e/f/ e/f/d d/cc/ | %3
"G" Pd3/2BB/G G/G/B/4d/4g/4b/4 | g'>B G/B/d d/ee/ | dd/BB/G"G" [GBg]/[GBg]/[GBg]/[GBg]/ | %6
 !>![GBg]e/f/ d/e/c c/BB/ |1 cc/ BB/ PA3 :|2 c/4d/4c/c/BB/ A3 ||"A#" z c Bc/4d/4c/ B<A- | %10
 Ac Bc/4d/4c/ B<A- | Ac/A/ c/e/d/4e/4d/ d/cc/ |{Bc} BB/"G"A A<G G/4B/4d/4g/4b/4d'/4 | %13
 g'B AB/4c/4B/ A<G- | GB AB/4c/4B/ A<G | z B/G/ B/d/(3c/d/c/ c/(3B/c/B/B/ | %16
 (4:3:4A/B/A/A/A^G/ A3- | A!44!c Bc/4d/4c/ B/A/[Aca]/[Aca]/ | [Aca]c Bc/4d/4c/ B<A- | %19
 Ac/A/ c/e/(3d/e/d/ d/(3c/d/c/c/ | (3B/c/B/ B/(3A/B/A/A/G"G" [GBg]/[GBg]/[GBg]/[GBg]/ | %21
 !>![GBg]B AB/4c/4B/ A/{GA}G/[GBg]/[GBg]/ | [GBg]B AB/4c/4B/ A/{GA}G/[GBg]/[GBg]/ | %23
 [GBg]B/G/ B/d/(3c/d/c/ c/ (3B/c/B/ B/ | (3A/B/A/ A/ ^G/4_B/4 A/4G/4 G/{/=B} A3 | %25
 [ce]/[ce]/A/[df]/ [df]/A/[ce]/[ce]/ A/[df]/[df]/A/ | %26
 [ce]/[ce]/A/[df]/ [df]/A/[ce]/A/ [df]/A/[df]/A/ | %27
 [Bd]/[Bd]/G/[ce]/"G" [ce]/G/[Bd]/[Bd]/ G/[ce]/[ce]/G/ | %28
 [Bd]/[Bd]/G/[ce]/ [ce]/G/[Bd]/G/ [ce]/G/[ce]/G/ | %29
 [ce]/[ce]/A/[df]/ [df]/A/[ce]/[ce]/ A/[df]/[df]/A/ | %30
 [ce]/[ce]/A/[df]/ [df]/A/[ce]/A/ [df]/[df]/A/[ce]/ | %31
 [Bd]/[Bd]/G/[ce]/"G" [ce]/G/[Bd]/[Bd]/ G/[ce]/[ce]/G/ | %32
 [Bd]/[Bd]/G/[ce]/ [ce]/G/[Bd]/G/ [ce]/G/[ce]/G/ | [Ac]E/A/"A#" B/c/e/a/ b/c'/e'/ a'/ | %34
 b'/ [e'c'']2 z/[Q:1/4=140] (9:6:9c/B/A/ E/C/B,/A,/E,/C,/ | z6 |] %36
V:2
|:!ff! !>![A,,,E,,A,,] [A,CE]/[A,CE]/ [A,CE]/[A,CE]/[A,CE] [A,CE]/[A,CE] [A,CE]/ | %1
 A,,[A,CE]/[A,CE]/ [A,CE]/[A,CE]/[A,CE] [A,CE]/[A,CE]/[A,CE]/[A,CE]/ | %2
 A,,[A,CE]/[A,CE]/ [A,CE]/[A,CE]/[A,CE] [A,CE]/[A,E]/[A,CE]/[A,E]/ | %3
 G,,[G,B,D] [G,B,D]/[G,B,D]/[G,B,D] [G,B,D]/[G,B,D]D/ | %4
 [G,B,D][G,B,D]/[G,B,D]/ [G,B,D]/[G,B,D]/[B,DG] [B,DG]/[B,DG]/[B,DG]/[B,DG]/ | %5
 [G,B,D][G,B,D]/[G,B,D]/ [G,B,D]/[G,B,D]/[G,B,D] [G,,D,G,]/[G,,D,G,]/[G,,D,G,]/[G,,D,G,]/ | %6
 [G,,G,][G,B,D]/[G,B,D]/ [G,B,D]/[G,B,D]/[G,B,D] [G,B,D]/[G,B,D]/[G,B,D] |1 %7
 [F,,,F,,]3/2[G,,,G,,]3/2[A,,,E,,A,,] [A,,C,E,]/[C,E,A,]/[C,E,A,]/[C,E,A,]/ :|2 %8
 F,,[C,F,]/G,,/ [D,G,][A,,E,] [A,,E,A,]/[A,,E,A,]/[A,,E,A,]/[A,,A,]/ || %9
 !30!A,,[A,CE]/[A,CE]/ [A,CE]/[A,CE]/[A,CE] [A,CE]/[A,CE]/[A,CE]/[A,,A,]/ | %10
 [A,,E,A,][A,CE]/[A,CE]/ [A,CE]/[A,CE]/[A,CE] [A,E]/[A,CE]/A,/E,/ | %11
 A,,[A,CE]/[A,CE]/ [A,CE]/[A,CE]/[A,CE] [A,CE]/[A,CE]/[A,CE]/[A,CE]/ | %12
 G,,G,,/ [G,B,D]/ [G,B,D]/[G,B,D]/[G,B,D] [G,B,D]/[G,B,D]/[G,B,D] | %13
 [G,B,D][G,B,D]/[G,B,D]/ [G,B,D]/[G,B,D]/[G,B,D] [G,B,D]/[G,B,D]/[G,,G,]/[G,,D,G,]/ | %14
 !>!.[G,,D,G,] [G,B,D]/[G,B,D]/ [G,B,D]/[G,B,D]/[G,B,D] [G,B,D]/[G,B,D]/[G,,D,G,]/[G,,D,G,]/ | %15
 !>!.[G,,D,G,] [G,B,D]/[G,B,D]/ [G,B,D]/[G,B,D]/[G,B,D] [G,B,D]/[G,B,D]/[G,B,D]/[G,B,D]/ | %16
 [F,,C,F,][F,,C,F,]/ [G,,D,G,][G,,D,G,]/ [A,,D,A,] [A,,E,A,]/[A,,E,A,]/[A,,E,A,]/[A,,E,A,]/ | %17
 !>!.[A,,E,A,][A,CE]/[A,CE]/ [A,CE]/[A,CE]/[A,CE] [A,CE]/[A,CE]/[A,CE]/[A,CE]/ | %18
 [A,CE][A,CE]/[A,CE]/ [A,CE]/[A,CE]/[A,CE] [A,CE]/[A,CE]/A,/E,/ | %19
 A,,[A,CE]/[A,CE]/ [A,CE]/[A,CE]/[A,CE] [A,CE]/[A,CE]/[A,CE]/[A,CE]/ | %20
 [A,CE][A,CE]/[A,CE]/ [A,CE]/E,/[G,,D,] [G,,D,G,]/[G,,D,G,]/[G,,D,G,]/[G,,D,G,]/ | %21
 !>![G,,D,G,][G,B,D]/[G,B,D]/ [G,B,D]/[G,B,D]/[G,B,D] [G,B,D]/[G,B,D]/[G,,D,G,]/[G,,D,G,]/ | %22
 [G,,D,G,][G,B,D]/[G,B,D]/ [G,B,D]/[G,B,D]/[G,B,D] [G,B,D]/[G,B,D]/[G,,D,G,]/[G,,D,G,]/ | %23
 [G,,D,G,][G,B,D]/[G,B,D]/ [G,B,D]/[G,B,D]/[G,B,D] [G,B,D]/[G,B,D]/[G,B,D]/[G,B,D]/ | %24
 F,,[F,,C,F,]/ [E,,B,,E,][E,,B,,E,]/ [A,,E,A,] [A,,E,A,]/[A,,E,A,]/[A,,E,A,]/[A,,E,A,]/ | %25
 A,, [A,CE]/[A,CE]/ [A,CE]/[A,CE]/[A,CE] [A,CE]/[A,CE]/[A,CE]/[A,CE]/ | %26
 [A,CE] [A,CE]/[A,CE]/ [A,CE]/[A,CE]/ [A,CE]/[A,CE]/ [A,CE]/[A,CE]/[A,CE]/G,/ | %27
 [G,,D,G,][G,,D,G,]/[G,,D,G,]/ [G,,D,G,]/[G,,D,G,]/[G,,D,G,] [G,,D,G,]/[G,,D,G,]/[G,,D,G,]/[G,,D,G,]/ | %28
 [G,,D,G,][G,B,D]/[G,B,D]/ [G,B,D]/[G,B,D]/[G,B,D]/[G,B,D]/ [G,B,D]/[G,B,D]/[G,B,D]/A,/ | %29
 [G,,D,G,][A,,E,A,]/[A,,E,A,]/ [A,,E,A,]/[A,,E,A,]/[A,,E,A,] [A,,E,A,]/[A,,E,A,]/[A,,E,A,]/[A,,E,A,]/ | %30
 [A,,E,A,][A,,E,A,]/[A,,E,A,]/ [A,,E,A,]/[A,,E,A,]/[A,,E,A,] [A,CE]/[A,C]/[A,B,]/[A,,E,]/ | %31
 [G,,D,G,]/[G,,D,G,]/[G,,D,G,]/[G,,D,G,]/ [G,,D,G,][G,,D,G,] [G,,D,G,]/[G,,D,G,]/[G,,D,G,]/[G,,D,G,]/ | %32
 [G,,D,G,][G,,D,G,]/[G,,D,G,]/ [G,,D,G,]/[G,,D,G,]/[G,,D,G,]/[G,,D,G,]/ [G,,D,G,]/[G,,D,G,]/[G,,D,G,]/[G,,D,G,]/ | %33
 [A,,E,A,]2 z2 [A,,E,A,]/[A,,E,A,]/[A,,E,A,] | [A,,E,A,]2 [E,A,]4 | !>!.A,, z z2 z2 |] %36

